src/client/web-contents/img/common/badge/badge_tip.svg

<svg height="32" viewBox="0 0 56 32" width="56" xmlns="http://www.w3.org/2000/svg"><g fill="none" fill-rule="evenodd"><path d="m0 0h56v32h-56z" fill="none"/><rect height="26.28" rx="13.14" stroke="#178bce" stroke-width="1.72" width="46.28" x="4.86" y="2.86"/><path d="m17.2570386 11.84h-4.2570386v-2.84h11.591936v2.84h-4.2570385v11.16h-3.0778589zm8.9641988-2.84h3.0778589v14h-3.0778589zm11.2226277 7.06c.7727996 0 1.3723765-.2033313 1.7987487-.61s.6395551-.909997.6395551-1.51v-.04c0-.6933368-.2231758-1.2199982-.6695342-1.58s-1.0559283-.54-1.8287279-.54h-2.3783455v4.28zm-5.5161626-7.06h5.7160236c.8394203 0 1.5888914.1166655 2.2484359.35s1.2191496.5633312 1.6788321.99.8127667.9366637 1.0592631 1.53.3697428 1.2499964.3697428 1.97v.04c0 .8133374-.1465632 1.5266636-.4396941 2.14s-.6961798 1.1266646-1.2091589 1.54c-.512979.4133354-1.1125559.7233323-1.7987487.93-.6861927.2066677-1.4223399.31-2.2084636.31h-2.3383734v4.2h-3.0778588z" fill="#178bce"/></g></svg>

<?xml version="1.0" encoding="UTF-8" standalone="no"?>
<svg width="56px" height="32px" viewBox="0 0 56 32" version="1.1" xmlns="http://www.w3.org/2000/svg" xmlns:xlink="http://www.w3.org/1999/xlink">
    <!-- Generator: Sketch 50.2 (55047) - http://www.bohemiancoding.com/sketch -->
    <title>graphic_badge_tip</title>
    <desc>Created with Sketch.</desc>
    <defs></defs>
    <g id="Icon_Badge_Graphic" stroke="none" stroke-width="1" fill="none" fill-rule="evenodd">
        <g id="##Element/Badge/TIP">
            <rect id="Icon_Area" fill-opacity="0" fill="#FFFFFF" x="0" y="0" width="56" height="32"></rect>
            <rect id="Rectangle-18" stroke="#178BCE" stroke-width="1.72" x="4.86" y="2.86" width="46.28" height="26.28" rx="13.14"></rect>
            <path d="M17.2570386,11.84 L13,11.84 L13,9 L24.591936,9 L24.591936,11.84 L20.3348975,11.84 L20.3348975,23 L17.2570386,23 L17.2570386,11.84 Z M26.2212374,9 L29.2990963,9 L29.2990963,23 L26.2212374,23 L26.2212374,9 Z M37.4438651,16.06 C38.2166647,16.06 38.8162416,15.8566687 39.2426138,15.45 C39.668986,15.0433313 39.8821689,14.540003 39.8821689,13.94 L39.8821689,13.9 C39.8821689,13.2066632 39.6589931,12.6800018 39.2126347,12.32 C38.7662763,11.9599982 38.1567064,11.78 37.3839068,11.78 L35.0055613,11.78 L35.0055613,16.06 L37.4438651,16.06 Z M31.9277025,9 L37.6437261,9 C38.4831464,9 39.2326175,9.1166655 39.892162,9.35 C40.5517065,9.5833345 41.1113116,9.9133312 41.5709941,10.34 C42.0306766,10.7666688 42.3837608,11.2766637 42.6302572,11.87 C42.8767536,12.4633363 43,13.1199964 43,13.84 L43,13.88 C43,14.6933374 42.8534368,15.4066636 42.5603059,16.02 C42.267175,16.6333364 41.8641261,17.1466646 41.351147,17.56 C40.838168,17.9733354 40.2385911,18.2833323 39.5523983,18.49 C38.8662056,18.6966677 38.1300584,18.8 37.3439347,18.8 L35.0055613,18.8 L35.0055613,23 L31.9277025,23 L31.9277025,9 Z" id="TIP" fill="#178BCE"></path>
        </g>
    </g>
</svg>
